projects/plugins/super-cache/assets/jetpack-logo.svg

<svg fill="none" height="36" viewBox="0 0 283 36" width="283" xmlns="http://www.w3.org/2000/svg"><path d="m149.377 15.281c.55.0799 1.043.2264 1.478.4394.444.2131.821.4882 1.132.8256.319.3284.563.7234.732 1.185.169.4527.253.972.253 1.5579 0 .4172-.062.8566-.186 1.3182-.125.4527-.333.8965-.626 1.3315-.284.4261-.662.8211-1.132 1.185-.462.364-1.039.6614-1.731.8922-.533.1775-1.123.3018-1.771.3728s-1.425.1065-2.33.1065h-4.607v-17.81566h4.447c.408 0 .777.00888 1.105.02663.338.00888.644.02663.919.05326.284.02663.546.06214.786.10653.239.0355.466.07989.679.13315.559.1509 1.065.35951 1.518.62581.461.25743.852.56811 1.171.93206.32.36395.564.77672.733 1.23831.177.46161.266.96311.266 1.50461 0 .435-.053.8522-.16 1.2516-.097.3995-.262.7679-.492 1.1052-.222.3373-.515.6391-.879.9054-.355.2663-.79.4882-1.305.6658zm-3.316-.8921c.426 0 .795-.0177 1.106-.0532.31-.0444.59-.1066.838-.1865.666-.2219 1.15-.5681 1.452-1.0385.31-.4705.466-1.0253.466-1.6644 0-.6569-.16-1.194-.48-1.61117-.319-.4172-.821-.72789-1.504-.93206-.337-.09764-.728-.16422-1.172-.19972-.444-.04439-.967-.06658-1.571-.06658h-2.437v5.75213zm-3.302 1.9573v6.1916h2.623c.622 0 1.199-.0266 1.731-.0799.533-.0621.986-.1554 1.358-.2796.409-.1332.755-.3018 1.039-.506.284-.213.51-.4438.679-.6924.178-.2574.302-.5282.373-.8122.08-.2841.12-.5726.12-.8655 0-.3373-.04-.6524-.12-.9454-.08-.3018-.213-.5681-.4-.7989-.177-.2397-.417-.4483-.719-.6258-.292-.1775-.661-.3151-1.105-.4128-.266-.0621-.572-.1065-.918-.1331-.338-.0266-.759-.04-1.265-.04z" fill="#000"/><path d="m165.226 18.1837c0-.7811-.098-1.4735-.293-2.0771-.187-.6125-.453-1.1274-.799-1.5446-.338-.4261-.741-.7456-1.212-.9587-.47-.2219-.985-.3329-1.544-.3329-.56 0-1.075.111-1.545.3329-.47.2131-.879.5326-1.225.9587-.337.4172-.604.9321-.799 1.5446-.186.6036-.28 1.296-.28 2.0771 0 .7723.094 1.4647.28 2.0772.195.6036.466 1.114.812 1.5312s.755.7368 1.225.9587c.471.2131.986.3196 1.545.3196s1.07-.1065 1.531-.3196c.471-.2219.874-.5415 1.212-.9587.346-.4172.612-.9276.799-1.5312.195-.6125.293-1.3049.293-2.0772zm2.157 0c0 .9942-.142 1.8997-.426 2.7163-.284.8167-.688 1.5179-1.212 2.1038-.515.577-1.141 1.0253-1.878 1.3448-.736.3196-1.562.4794-2.476.4794-.941 0-1.784-.1598-2.53-.4794-.737-.3195-1.367-.7678-1.891-1.3448-.515-.5859-.91-1.2871-1.185-2.1038-.275-.8166-.413-1.7221-.413-2.7163 0-1.003.142-1.9129.426-2.7296.285-.8166.684-1.5179 1.199-2.1038.524-.5858 1.154-1.0385 1.891-1.3581.745-.3196 1.575-.4794 2.49-.4794.932 0 1.77.1598 2.516.4794s1.376.7723 1.891 1.3581c.515.5859.91 1.2872 1.185 2.1038.275.8167.413 1.7266.413 2.7296z" fill="#000"/><path d="m179.357 18.1837c0-.7811-.098-1.4735-.293-2.0771-.187-.6125-.453-1.1274-.799-1.5446-.337-.4261-.741-.7456-1.212-.9587-.47-.2219-.985-.3329-1.544-.3329-.56 0-1.074.111-1.545.3329-.47.2131-.879.5326-1.225.9587-.337.4172-.604.9321-.799 1.5446-.186.6036-.279 1.296-.279 2.0771 0 .7723.093 1.4647.279 2.0772.195.6036.466 1.114.812 1.5312.347.4172.755.7368 1.225.9587.471.2131.986.3196 1.545.3196s1.07-.1065 1.531-.3196c.471-.2219.875-.5415 1.212-.9587.346-.4172.612-.9276.799-1.5312.195-.6125.293-1.3049.293-2.0772zm2.157 0c0 .9942-.142 1.8997-.426 2.7163-.284.8167-.688 1.5179-1.212 2.1038-.515.577-1.141 1.0253-1.877 1.3448-.737.3196-1.563.4794-2.477.4794-.941 0-1.784-.1598-2.53-.4794-.737-.3195-1.367-.7678-1.891-1.3448-.515-.5859-.91-1.2871-1.185-2.1038-.275-.8166-.412-1.7221-.412-2.7163 0-1.003.142-1.9129.426-2.7296.284-.8166.683-1.5179 1.198-2.1038.524-.5858 1.154-1.0385 1.891-1.3581.745-.3196 1.575-.4794 2.49-.4794.932 0 1.771.1598 2.516.4794.746.3196 1.376.7723 1.891 1.3581.515.5859.91 1.2872 1.185 2.1038.275.8167.413 1.7266.413 2.7296z" fill="#000"/><path d="m185.698 15.2145c0 .3461.076.6302.227.8521s.35.4039.599.5459c.257.1332.55.2442.879.3329.337.0888.683.1687 1.038.2397.489.1065.95.2264 1.385.3595.435.1243.835.3151 1.199.5726.372.2574.67.608.892 1.0519.23.4349.346 1.003.346 1.7043 0 .6391-.124 1.2072-.373 1.7043-.249.4883-.599.901-1.052 1.2383-.453.3285-.994.577-1.624.7457-.631.1775-1.323.2663-2.078.2663-.461 0-.883-.0266-1.264-.0799-.373-.0444-.706-.1065-.999-.1864-.284-.071-.528-.1465-.732-.2264-.205-.0799-.373-.1553-.506-.2263v-1.731c.532.213 1.06.3817 1.584.506s1.101.1864 1.731.1864c.497 0 .945-.0444 1.345-.1332.399-.0887.741-.2174 1.025-.3861.293-.1775.515-.395.666-.6524.16-.2663.24-.5726.24-.9188 0-.3551-.071-.648-.213-.8788s-.333-.4216-.573-.5725-.519-.2752-.839-.3729c-.311-.0976-.639-.1864-.985-.2663-.453-.0976-.914-.213-1.385-.3462-.462-.1331-.883-.3195-1.265-.5592s-.692-.5637-.932-.972c-.231-.4172-.346-.9498-.346-1.5978 0-.6658.12-1.2428.359-1.731.24-.4882.564-.8921.972-1.2117.409-.3195.884-.5592 1.425-.719.542-.1598 1.114-.2397 1.718-.2397.701 0 1.349.0666 1.944.1998.603.1331 1.149.3018 1.638.5059v1.7576c-.533-.2041-1.075-.3683-1.625-.4926-.541-.1332-1.101-.2042-1.678-.2131-.488 0-.905.0489-1.251.1465-.346.0977-.63.2352-.852.4128-.222.1686-.387.3728-.493.6125-.098.2308-.147.4882-.147.7723z" fill="#000"/><path d="m201.654 24.5217c-.178.0711-.449.1376-.812.1998-.364.0621-.799.0976-1.305.1065-.666 0-1.243-.0843-1.731-.253-.489-.1598-.897-.3906-1.225-.6924-.32-.3107-.56-.6835-.719-1.1185-.16-.4349-.24-.9187-.24-1.4513v-7.6962h-2.437v-1.7709h2.437v-3.46192h2.064v3.46192h3.781v1.7709h-3.781v7.3766c0 .293.04.5637.12.8123.088.2485.222.466.399.6524.187.1775.422.3196.706.4261.284.0976.626.1464 1.025.1464.275 0 .564-.0221.866-.0665.31-.0444.594-.1021.852-.1731z" fill="#000"/><path d="m18.0007 36c9.9414 0 18.0006-8.0592 18.0006-18.0007 0-9.94139-8.0592-17.9993-18.0006-17.9993-9.94146 0-18.0007 8.05924-18.0007 18.0007 0 9.9414 8.05924 17.9993 18.0007 17.9993z" fill="#069e08"/><path d="m18.8938 14.9774v17.4502l9.0003-17.4502z" fill="#fff"/><path d="m17.073 20.9892v-17.41681l-8.9657 17.41681z" fill="#fff"/><g fill="#000"><path d="m46.4773 29.8856c-.5158-.7904-.9957-1.5796-1.4769-2.3354 2.542-1.5462 3.4004-2.7819 3.4004-5.1187v-13.50045h-2.9885v-2.57534h6.3556v15.38939c0 3.9163-1.133 6.1144-5.2906 8.1405z"/><path d="m73.101 20.68c0 1.305.9278 1.4423 1.5463 1.4423s1.5116-.2066 2.1981-.4119v2.4047c-.9624.3093-1.9582.5492-3.3325.5492-1.6489 0-3.5724-.6185-3.5724-3.5044v-7.0768h-1.7515v-2.4394h1.7515v-3.60574h3.1605v3.60704h3.9843v2.4394h-3.9843z"/><path d="m79.6967 31.088v-19.4776h3.0232v1.1677c1.2023-.9278 2.542-1.5116 4.1909-1.5116 2.8512 0 5.1187 1.9928 5.1187 6.2863 0 4.2603-2.4727 7.0769-6.561 7.0769-.9957 0-1.7862-.1373-2.6113-.3093v6.7329h-3.1605zm6.389-17.2102c-.9278 0-2.0955.4466-3.1952 1.409v6.6303c.6865.1372 1.409.2399 2.37.2399 2.2328 0 3.5045-1.409 3.5045-4.3629 0-2.7139-.9278-3.9163-2.6793-3.9163z"/><path d="m104.464 24.3551h-2.954v-1.409h-.07c-1.03.7905-2.3017 1.6489-4.1906 1.6489-1.6489 0-3.4351-1.2023-3.4351-3.6417 0-3.2631 2.782-3.8816 4.7401-4.1562l2.7816-.3773v-.3772c0-1.7182-.686-2.2674-2.3017-2.2674-.7904 0-2.6446.2399-4.1562.8584l-.2746-2.542c1.3743-.4812 3.2631-.8238 4.844-.8238 3.0915 0 5.0845 1.237 5.0845 4.9121v8.1752zm-3.161-5.9425-2.6113.4119c-.7904.1027-1.6142.5839-1.6142 1.7516 0 1.0304.5838 1.6142 1.4423 1.6142.9277 0 1.9232-.5492 2.7822-1.1677v-2.61z"/><path d="m117.517 23.9432c-1.305.4466-2.472.7212-3.951.7212-4.74 0-6.63-2.714-6.63-6.6637 0-4.1562 2.611-6.7329 6.836-6.7329 1.579 0 2.542.2746 3.607.6185v2.6793c-.928-.3439-2.268-.7211-3.573-.7211-1.923 0-3.572 1.0304-3.572 3.9843 0 3.2631 1.649 4.2602 3.744 4.2602.996 0 2.096-.2066 3.573-.7904v2.6446z"/><path d="m123.495 17.1076c.274-.3093.481-.6185 4.465-5.4626h4.122l-5.153 6.0464 5.633 6.6983h-4.122l-4.912-6.0464v6.0464h-3.159v-18.03399h3.16v10.75189z"/><path d="m65.8176 23.9432c-1.649.5159-3.0579.7211-4.7068.7211-4.0536 0-6.561-2.0261-6.561-6.7675 0-3.4698 2.1301-6.6303 6.2171-6.6303 4.0536 0 5.4625 2.8166 5.4625 5.4959 0 .8931-.0693 1.3743-.1026 1.8888h-8.1752c.0693 2.782 1.6489 3.4351 4.0189 3.4351 1.305 0 2.4727-.3092 3.8137-.7904v2.6446h.0334zm-2.8846-7.3861c0-1.5463-.5159-2.8859-2.1981-2.8859-1.5796 0-2.542 1.133-2.7487 2.8859z"/></g></svg>

<svg width="283" height="36" viewBox="0 0 283 36" fill="none" xmlns="http://www.w3.org/2000/svg">
<path d="M149.377 15.281C149.927 15.3609 150.42 15.5074 150.855 15.7204C151.299 15.9335 151.676 16.2086 151.987 16.546C152.306 16.8744 152.55 17.2694 152.719 17.731C152.888 18.1837 152.972 18.703 152.972 19.2889C152.972 19.7061 152.91 20.1455 152.786 20.6071C152.661 21.0598 152.453 21.5036 152.16 21.9386C151.876 22.3647 151.498 22.7597 151.028 23.1236C150.566 23.4876 149.989 23.785 149.297 24.0158C148.764 24.1933 148.174 24.3176 147.526 24.3886C146.878 24.4596 146.101 24.4951 145.196 24.4951H140.589V6.67944H145.036C145.444 6.67944 145.813 6.68832 146.141 6.70607C146.479 6.71495 146.785 6.7327 147.06 6.75933C147.344 6.78596 147.606 6.82147 147.846 6.86586C148.085 6.90136 148.312 6.94575 148.525 6.99901C149.084 7.14991 149.59 7.35852 150.043 7.62482C150.504 7.88225 150.895 8.19293 151.214 8.55688C151.534 8.92083 151.778 9.3336 151.947 9.79519C152.124 10.2568 152.213 10.7583 152.213 11.2998C152.213 11.7348 152.16 12.152 152.053 12.5514C151.956 12.9509 151.791 13.3193 151.561 13.6566C151.339 13.9939 151.046 14.2957 150.682 14.562C150.327 14.8283 149.892 15.0502 149.377 15.2278V15.281ZM146.061 14.3889C146.487 14.3889 146.856 14.3712 147.167 14.3357C147.477 14.2913 147.757 14.2291 148.005 14.1492C148.671 13.9273 149.155 13.5811 149.457 13.1107C149.767 12.6402 149.923 12.0854 149.923 11.4463C149.923 10.7894 149.763 10.2523 149.443 9.83513C149.124 9.41793 148.622 9.10724 147.939 8.90307C147.602 8.80543 147.211 8.73885 146.767 8.70335C146.323 8.65896 145.8 8.63677 145.196 8.63677H142.759V14.3889H146.061ZM142.759 16.3462V22.5378H145.382C146.004 22.5378 146.581 22.5112 147.113 22.4579C147.646 22.3958 148.099 22.3025 148.471 22.1783C148.88 22.0451 149.226 21.8765 149.51 21.6723C149.794 21.4593 150.02 21.2285 150.189 20.9799C150.367 20.7225 150.491 20.4517 150.562 20.1677C150.642 19.8836 150.682 19.5951 150.682 19.3022C150.682 18.9649 150.642 18.6498 150.562 18.3568C150.482 18.055 150.349 17.7887 150.162 17.5579C149.985 17.3182 149.745 17.1096 149.443 16.9321C149.151 16.7546 148.782 16.617 148.338 16.5193C148.072 16.4572 147.766 16.4128 147.42 16.3862C147.082 16.3596 146.661 16.3462 146.155 16.3462H142.759Z" fill="black"/>
<path d="M165.226 18.1837C165.226 17.4026 165.128 16.7102 164.933 16.1066C164.746 15.4941 164.48 14.9792 164.134 14.562C163.796 14.1359 163.393 13.8164 162.922 13.6033C162.452 13.3814 161.937 13.2704 161.378 13.2704C160.818 13.2704 160.303 13.3814 159.833 13.6033C159.363 13.8164 158.954 14.1359 158.608 14.562C158.271 14.9792 158.004 15.4941 157.809 16.1066C157.623 16.7102 157.529 17.4026 157.529 18.1837C157.529 18.956 157.623 19.6484 157.809 20.2609C158.004 20.8645 158.275 21.3749 158.621 21.7921C158.967 22.2093 159.376 22.5289 159.846 22.7508C160.317 22.9639 160.832 23.0704 161.391 23.0704C161.95 23.0704 162.461 22.9639 162.922 22.7508C163.393 22.5289 163.796 22.2093 164.134 21.7921C164.48 21.3749 164.746 20.8645 164.933 20.2609C165.128 19.6484 165.226 18.956 165.226 18.1837ZM167.383 18.1837C167.383 19.1779 167.241 20.0834 166.957 20.9C166.673 21.7167 166.269 22.4179 165.745 23.0038C165.23 23.5808 164.604 24.0291 163.867 24.3486C163.131 24.6682 162.305 24.828 161.391 24.828C160.45 24.828 159.607 24.6682 158.861 24.3486C158.124 24.0291 157.494 23.5808 156.97 23.0038C156.455 22.4179 156.06 21.7167 155.785 20.9C155.51 20.0834 155.372 19.1779 155.372 18.1837C155.372 17.1807 155.514 16.2708 155.798 15.4541C156.083 14.6375 156.482 13.9362 156.997 13.3503C157.521 12.7645 158.151 12.3118 158.888 11.9922C159.633 11.6726 160.463 11.5128 161.378 11.5128C162.31 11.5128 163.148 11.6726 163.894 11.9922C164.64 12.3118 165.27 12.7645 165.785 13.3503C166.3 13.9362 166.695 14.6375 166.97 15.4541C167.245 16.2708 167.383 17.1807 167.383 18.1837Z" fill="black"/>
<path d="M179.357 18.1837C179.357 17.4026 179.259 16.7102 179.064 16.1066C178.877 15.4941 178.611 14.9792 178.265 14.562C177.928 14.1359 177.524 13.8164 177.053 13.6033C176.583 13.3814 176.068 13.2704 175.509 13.2704C174.949 13.2704 174.435 13.3814 173.964 13.6033C173.494 13.8164 173.085 14.1359 172.739 14.562C172.402 14.9792 172.135 15.4941 171.94 16.1066C171.754 16.7102 171.661 17.4026 171.661 18.1837C171.661 18.956 171.754 19.6484 171.94 20.2609C172.135 20.8645 172.406 21.3749 172.752 21.7921C173.099 22.2093 173.507 22.5289 173.977 22.7508C174.448 22.9639 174.963 23.0704 175.522 23.0704C176.081 23.0704 176.592 22.9639 177.053 22.7508C177.524 22.5289 177.928 22.2093 178.265 21.7921C178.611 21.3749 178.877 20.8645 179.064 20.2609C179.259 19.6484 179.357 18.956 179.357 18.1837ZM181.514 18.1837C181.514 19.1779 181.372 20.0834 181.088 20.9C180.804 21.7167 180.4 22.4179 179.876 23.0038C179.361 23.5808 178.735 24.0291 177.999 24.3486C177.262 24.6682 176.436 24.828 175.522 24.828C174.581 24.828 173.738 24.6682 172.992 24.3486C172.255 24.0291 171.625 23.5808 171.101 23.0038C170.586 22.4179 170.191 21.7167 169.916 20.9C169.641 20.0834 169.504 19.1779 169.504 18.1837C169.504 17.1807 169.646 16.2708 169.93 15.4541C170.214 14.6375 170.613 13.9362 171.128 13.3503C171.652 12.7645 172.282 12.3118 173.019 11.9922C173.764 11.6726 174.594 11.5128 175.509 11.5128C176.441 11.5128 177.28 11.6726 178.025 11.9922C178.771 12.3118 179.401 12.7645 179.916 13.3503C180.431 13.9362 180.826 14.6375 181.101 15.4541C181.376 16.2708 181.514 17.1807 181.514 18.1837Z" fill="black"/>
<path d="M185.698 15.2145C185.698 15.5606 185.774 15.8447 185.925 16.0666C186.076 16.2885 186.275 16.4705 186.524 16.6125C186.781 16.7457 187.074 16.8567 187.403 16.9454C187.74 17.0342 188.086 17.1141 188.441 17.1851C188.93 17.2916 189.391 17.4115 189.826 17.5446C190.261 17.6689 190.661 17.8597 191.025 18.1172C191.397 18.3746 191.695 18.7252 191.917 19.1691C192.147 19.604 192.263 20.1721 192.263 20.8734C192.263 21.5125 192.139 22.0806 191.89 22.5777C191.641 23.066 191.291 23.4787 190.838 23.816C190.385 24.1445 189.844 24.393 189.214 24.5617C188.583 24.7392 187.891 24.828 187.136 24.828C186.675 24.828 186.253 24.8014 185.872 24.7481C185.499 24.7037 185.166 24.6416 184.873 24.5617C184.589 24.4907 184.345 24.4152 184.141 24.3353C183.936 24.2554 183.768 24.18 183.635 24.109V22.378C184.167 22.591 184.695 22.7597 185.219 22.884C185.743 23.0083 186.32 23.0704 186.95 23.0704C187.447 23.0704 187.895 23.026 188.295 22.9372C188.694 22.8485 189.036 22.7198 189.32 22.5511C189.613 22.3736 189.835 22.1561 189.986 21.8987C190.146 21.6324 190.226 21.3261 190.226 20.9799C190.226 20.6248 190.155 20.3319 190.013 20.1011C189.871 19.8703 189.68 19.6795 189.44 19.5286C189.2 19.3777 188.921 19.2534 188.601 19.1557C188.29 19.0581 187.962 18.9693 187.616 18.8894C187.163 18.7918 186.702 18.6764 186.231 18.5432C185.769 18.4101 185.348 18.2237 184.966 17.984C184.584 17.7443 184.274 17.4203 184.034 17.012C183.803 16.5948 183.688 16.0622 183.688 15.4142C183.688 14.7484 183.808 14.1714 184.047 13.6832C184.287 13.195 184.611 12.7911 185.019 12.4715C185.428 12.152 185.903 11.9123 186.444 11.7525C186.986 11.5927 187.558 11.5128 188.162 11.5128C188.863 11.5128 189.511 11.5794 190.106 11.7126C190.709 11.8457 191.255 12.0144 191.744 12.2185V13.9761C191.211 13.772 190.669 13.6078 190.119 13.4835C189.578 13.3503 189.018 13.2793 188.441 13.2704C187.953 13.2704 187.536 13.3193 187.19 13.4169C186.844 13.5146 186.56 13.6521 186.338 13.8297C186.116 13.9983 185.951 14.2025 185.845 14.4422C185.747 14.673 185.698 14.9304 185.698 15.2145Z" fill="black"/>
<path d="M201.654 24.5217C201.476 24.5928 201.205 24.6593 200.842 24.7215C200.478 24.7836 200.043 24.8191 199.537 24.828C198.871 24.828 198.294 24.7437 197.806 24.575C197.317 24.4152 196.909 24.1844 196.581 23.8826C196.261 23.5719 196.021 23.1991 195.862 22.7641C195.702 22.3292 195.622 21.8454 195.622 21.3128V13.6166H193.185V11.8457H195.622V8.38378H197.686V11.8457H201.467V13.6166H197.686V20.9932C197.686 21.2862 197.726 21.5569 197.806 21.8055C197.894 22.054 198.028 22.2715 198.205 22.4579C198.392 22.6354 198.627 22.7775 198.911 22.884C199.195 22.9816 199.537 23.0304 199.936 23.0304C200.211 23.0304 200.5 23.0083 200.802 22.9639C201.112 22.9195 201.396 22.8618 201.654 22.7908V24.5217Z" fill="black"/>
<path d="M18.0007 36C27.9421 36 36.0013 27.9408 36.0013 17.9993C36.0013 8.05791 27.9421 0 18.0007 0C8.05924 0 0 8.05924 0 18.0007C0 27.9421 8.05924 36 18.0007 36Z" fill="#069E08"/>
<path d="M18.8938 14.9774V32.4276L27.8941 14.9774H18.8938V14.9774Z" fill="white"/>
<path d="M17.073 20.9892V3.57239L8.1073 20.9892H17.073Z" fill="white"/>
<path d="M46.4773 29.8856C45.9615 29.0952 45.4816 28.306 45.0004 27.5502C47.5424 26.004 48.4008 24.7683 48.4008 22.4315V8.93105H45.4123V6.35571H51.7679V21.7451C51.7679 25.6614 50.6349 27.8595 46.4773 29.8856Z" fill="black"/>
<path d="M73.101 20.68C73.101 21.985 74.0288 22.1223 74.6473 22.1223C75.2658 22.1223 76.1589 21.9157 76.8454 21.7104V24.1151C75.883 24.4244 74.8872 24.6643 73.5129 24.6643C71.864 24.6643 69.9405 24.0458 69.9405 21.1599V14.0831H68.189V11.6437H69.9405V8.03796H73.101V11.645H77.0853V14.0844H73.101V20.68Z" fill="black"/>
<path d="M79.6967 31.088V11.6104H82.7199V12.7781C83.9222 11.8503 85.2619 11.2665 86.9108 11.2665C89.762 11.2665 92.0295 13.2593 92.0295 17.5528C92.0295 21.8131 89.5568 24.6297 85.4685 24.6297C84.4728 24.6297 83.6823 24.4924 82.8572 24.3204V31.0533H79.6967V31.088V31.088ZM86.0857 13.8778C85.1579 13.8778 83.9902 14.3244 82.8905 15.2868V21.9171C83.577 22.0543 84.2995 22.157 85.2605 22.157C87.4933 22.157 88.765 20.748 88.765 17.7941C88.765 15.0802 87.8372 13.8778 86.0857 13.8778Z" fill="black"/>
<path d="M104.464 24.3551H101.51V22.9461H101.44C100.41 23.7366 99.1383 24.595 97.2494 24.595C95.6005 24.595 93.8143 23.3927 93.8143 20.9533C93.8143 17.6902 96.5963 17.0717 98.5544 16.7971L101.336 16.4198V16.0426C101.336 14.3244 100.65 13.7752 99.0343 13.7752C98.2439 13.7752 96.3897 14.0151 94.8781 14.6336L94.6035 12.0916C95.9778 11.6104 97.8666 11.2678 99.4475 11.2678C102.539 11.2678 104.532 12.5048 104.532 16.1799V24.3551H104.464V24.3551ZM101.303 18.4126L98.6917 18.8245C97.9013 18.9272 97.0775 19.4084 97.0775 20.5761C97.0775 21.6065 97.6613 22.1903 98.5198 22.1903C99.4475 22.1903 100.443 21.6411 101.302 21.0226V18.4126H101.303Z" fill="black"/>
<path d="M117.517 23.9432C116.212 24.3898 115.045 24.6644 113.566 24.6644C108.826 24.6644 106.936 21.9504 106.936 18.0007C106.936 13.8445 109.547 11.2678 113.772 11.2678C115.351 11.2678 116.314 11.5424 117.379 11.8863V14.5656C116.451 14.2217 115.111 13.8445 113.806 13.8445C111.883 13.8445 110.234 14.8749 110.234 17.8288C110.234 21.0919 111.883 22.089 113.978 22.089C114.974 22.089 116.074 21.8824 117.551 21.2986V23.9432H117.517Z" fill="black"/>
<path d="M123.495 17.1076C123.769 16.7983 123.976 16.4891 127.96 11.645H132.082L126.929 17.6914L132.562 24.3897H128.44L123.528 18.3433V24.3897H120.369V6.35571H123.529V17.1076H123.495Z" fill="black"/>
<path d="M65.8176 23.9432C64.1686 24.4591 62.7597 24.6643 61.1108 24.6643C57.0572 24.6643 54.5498 22.6382 54.5498 17.8968C54.5498 14.427 56.6799 11.2665 60.7669 11.2665C64.8205 11.2665 66.2294 14.0831 66.2294 16.7624C66.2294 17.6555 66.1601 18.1367 66.1268 18.6512H57.9516C58.0209 21.4332 59.6005 22.0863 61.9705 22.0863C63.2755 22.0863 64.4432 21.7771 65.7842 21.2959V23.9405H65.8176V23.9432ZM62.933 16.5571C62.933 15.0108 62.4171 13.6712 60.7349 13.6712C59.1553 13.6712 58.1929 14.8042 57.9862 16.5571H62.933V16.5571Z" fill="black"/>
</svg>
